mimes/32/text-x-preview.svg

<?xml version="1.0" encoding="UTF-8" standalone="no"?>
<!-- Created with Inkscape (http://www.inkscape.org/) -->

<svg
   xmlns:svg="http://www.w3.org/2000/svg"
   xmlns="http://www.w3.org/2000/svg"
   xmlns:xlink="http://www.w3.org/1999/xlink"
   version="1.0"
   width="32"
   height="32"
   id="svg2424">
  <defs
     id="defs2426">
    <linearGradient
       id="linearGradient5048">
      <stop
         id="stop5050"
         style="stop-color:black;stop-opacity:0"
         offset="0" />
      <stop
         id="stop5056"
         style="stop-color:black;stop-opacity:1"
         offset="0.5" />
      <stop
         id="stop5052"
         style="stop-color:black;stop-opacity:0"
         offset="1" />
    </linearGradient>
    <linearGradient
       id="linearGradient5060">
      <stop
         id="stop5062"
         style="stop-color:black;stop-opacity:1"
         offset="0" />
      <stop
         id="stop5064"
         style="stop-color:black;stop-opacity:0"
         offset="1" />
    </linearGradient>
    <linearGradient
       id="linearGradient3104">
      <stop
         id="stop3106"
         style="stop-color:#aaa;stop-opacity:1"
         offset="0" />
      <stop
         id="stop3108"
         style="stop-color:#c8c8c8;stop-opacity:1"
         offset="1" />
    </linearGradient>
    <linearGradient
       id="linearGradient3600">
      <stop
         id="stop3602"
         style="stop-color:#f4f4f4;stop-opacity:1"
         offset="0" />
      <stop
         id="stop3604"
         style="stop-color:#dbdbdb;stop-opacity:1"
         offset="1" />
    </linearGradient>
    <radialGradient
       cx="102"
       cy="112.3047"
       r="139.55859"
       id="XMLID_8_"
       gradientUnits="userSpaceOnUse">
      <stop
         id="stop41"
         style="stop-color:#b7b8b9;stop-opacity:1"
         offset="0" />
      <stop
         id="stop47"
         style="stop-color:#ececec;stop-opacity:1"
         offset="0.18851049" />
      <stop
         id="stop49"
         style="stop-color:#fafafa;stop-opacity:0"
         offset="0.25718147" />
      <stop
         id="stop51"
         style="stop-color:white;stop-opacity:0"
         offset="0.30111277" />
      <stop
         id="stop53"
         style="stop-color:#fafafa;stop-opacity:0"
         offset="0.53130001" />
      <stop
         id="stop55"
         style="stop-color:#ebecec;stop-opacity:0"
         offset="0.84490001" />
      <stop
         id="stop57"
         style="stop-color:#e1e2e3;stop-opacity:0"
         offset="1" />
    </radialGradient>
    <linearGradient
       id="linearGradient3211">
      <stop
         id="stop3213"
         style="stop-color:white;stop-opacity:1"
         offset="0" />
      <stop
         id="stop3215"
         style="stop-color:white;stop-opacity:0"
         offset="1" />
    </linearGradient>
    <filter
       x="-0.14846256"
       y="-0.16434373"
       width="1.2969251"
       height="1.3286875"
       color-interpolation-filters="sRGB"
       id="filter3212">
      <feGaussianBlur
         id="feGaussianBlur3214"
         stdDeviation="0.77391625" />
    </filter>
    <linearGradient
       id="linearGradient8589">
      <stop
         id="stop8591"
         style="stop-color:#fefefe;stop-opacity:1"
         offset="0" />
      <stop
         id="stop8593"
         style="stop-color:#cbcbcb;stop-opacity:1"
         offset="1" />
    </linearGradient>
    <linearGradient
       x1="32.892288"
       y1="8.0590115"
       x2="36.358372"
       y2="5.4565363"
       id="linearGradient2506"
       xlink:href="#linearGradient8589"
       gradientUnits="userSpaceOnUse"
       gradientTransform="matrix(0.6371285,0,0,0.6445638,0.8296804,0.7445175)" />
    <linearGradient
       x1="24"
       y1="1.9999999"
       x2="24"
       y2="46.01725"
       id="linearGradient2510"
       xlink:href="#linearGradient3211"
       gradientUnits="userSpaceOnUse"
       gradientTransform="matrix(0.6363646,0,0,0.6279076,0.7272514,0.9302159)" />
    <radialGradient
       cx="102"
       cy="112.3047"
       r="139.55859"
       id="radialGradient2513"
       xlink:href="#XMLID_8_"
       gradientUnits="userSpaceOnUse"
       gradientTransform="matrix(0.2340426,0,0,-0.2542968,1.0212767,32.288672)" />
    <linearGradient
       x1="25.132275"
       y1="0.98520643"
       x2="25.132275"
       y2="47.013336"
       id="linearGradient2516"
       xlink:href="#linearGradient3600"
       gradientUnits="userSpaceOnUse"
       gradientTransform="matrix(0.6571436,0,0,0.6301241,0.2285531,-0.08964783)" />
    <linearGradient
       x1="-51.786404"
       y1="50.786446"
       x2="-51.786404"
       y2="2.9062471"
       id="linearGradient2518"
       xlink:href="#linearGradient3104"
       gradientUnits="userSpaceOnUse"
       gradientTransform="matrix(0.5306412,0,0,0.5897023,39.269605,-0.7919081)" />
    <radialGradient
       cx="605.71429"
       cy="486.64789"
       r="117.14286"
       fx="605.71429"
       fy="486.64789"
       id="radialGradient2521"
       xlink:href="#linearGradient5060"
       gradientUnits="userSpaceOnUse"
       gradientTransform="matrix(0.01566318,0,0,0.00823529,17.610433,26.980566)" />
    <radialGradient
       cx="605.71429"
       cy="486.64789"
       r="117.14286"
       fx="605.71429"
       fy="486.64789"
       id="radialGradient2524"
       xlink:href="#linearGradient5060"
       gradientUnits="userSpaceOnUse"
       gradientTransform="matrix(-0.01566318,0,0,0.00823529,14.389566,26.980566)" />
    <linearGradient
       x1="302.85715"
       y1="366.64789"
       x2="302.85715"
       y2="609.50507"
       id="linearGradient2527"
       xlink:href="#linearGradient5048"
       gradientUnits="userSpaceOnUse"
       gradientTransform="matrix(0.04576928,0,0,0.00823529,-0.5423243,26.980549)" />
  </defs>
  <g
     id="layer1">
    <rect
       width="22.100021"
       height="2"
       x="4.9499893"
       y="30"
       id="rect2879"
       style="opacity:0.15;fill:url(#linearGradient2527);fill-opacity:1;fill-rule:nonzero;stroke:none;stroke-width:1;marker:none;visibility:visible;display:inline;overflow:visible" />
    <path
       d="m 4.9499887,30.000087 c 0,0 0,1.99989 0,1.99989 -0.806615,0.0038 -1.950002,-0.448074 -1.950002,-1.000074 0,-0.552 0.900121,-0.999816 1.950002,-0.999816 z"
       id="path2881"
       style="opacity:0.15;fill:url(#radialGradient2524);fill-opacity:1;fill-rule:nonzero;stroke:none;stroke-width:1;marker:none;visibility:visible;display:inline;overflow:visible" />
    <path
       d="m 27.050011,30.000087 c 0,0 0,1.99989 0,1.99989 0.806614,0.0038 1.950002,-0.448074 1.950002,-1.000074 0,-0.552 -0.900122,-0.999816 -1.950002,-0.999816 z"
       id="path2883"
       style="opacity:0.15;fill:url(#radialGradient2521);fill-opacity:1;fill-rule:nonzero;stroke:none;stroke-width:1;marker:none;visibility:visible;display:inline;overflow:visible" />
    <path
       d="m 4.499961,1.4999609 c 5.2704843,0 10.540969,0 15.811458,0 0.924556,0.3128002 5.891591,3.8764242 7.188621,6.3438858 0,7.5520643 0,15.1041283 0,22.6561933 -7.666694,0 -15.333386,0 -23.000079,0 0,-9.666694 0,-19.333388 0,-29.0000791 z"
       id="path4160"
       style="fill:url(#linearGradient2516);fill-opacity:1;stroke:url(#linearGradient2518);stroke-width:0.99992174;stroke-linecap:butt;stroke-linejoin:round;stroke-miterlimit:4;stroke-opacity:1;stroke-dasharray:none;stroke-dashoffset:0;display:inline" />
    <path
       d="M 5.2340427,30 C 5.1050853,30 5,29.885821 5,29.745703 L 5,2.2816602 C 5,2.141289 5.1050853,2.0273644 5.2340427,2.0273644 10.076044,2.0976535 15.441839,1.9222203 20.277954,2.0448649 L 26.931426,7.8143805 27,29.745703 C 27,29.885821 26.895148,30 26.765957,30 L 5.2340427,30 z"
       id="path4191"
       style="fill:url(#radialGradient2513);fill-opacity:1" />
    <path
       d="m 26.50004,8.1389757 c 0,7.0312323 0,14.3298293 0,21.3610643 -7.000025,0 -14.000051,0 -21.0000789,0 0,-9.000029 0,-18.000054 0,-27.0000792 4.8121839,0 9.7391359,0 14.5513199,0"
       id="path2435"
       style="opacity:0.6;fill:none;stroke:url(#linearGradient2510);stroke-width:1;stroke-linecap:butt;stroke-linejoin:miter;stroke-miterlimit:4;stroke-opacity:1;stroke-dasharray:none;stroke-dashoffset:0;display:inline" />
    <path
       d="m 28.617256,0.92125832 c 4.282522,0 2.15325,8.48317128 2.15325,8.48317128 0,0 10.357642,-1.8023467 10.357642,2.8187444 0,-2.6097233 -11.302304,-10.7285956 -12.510892,-11.30191568 z"
       transform="matrix(0.6385981,0,0,0.6193639,0.7250758,1.4294058)"
       id="path12038"
       style="opacity:0.4;fill:black;fill-opacity:1;fill-rule:evenodd;stroke:none;display:inline;filter:url(#filter3212)" />
    <path
       d="m 19.000002,2.0000004 c 2.034888,0 1.491612,4.7454907 1.491612,4.7454907 0,0 6.497818,-0.6076276 6.497818,2.2545089 0,-0.6973655 0.05487,-1.196763 -0.08543,-1.4143758 -1.007905,-1.5633861 -5.36136,-5.0715999 -6.93345,-5.5314084 -0.117643,-0.034408 -0.3785,-0.054215 -0.970551,-0.054215 z"
       id="path4474"
       style="fill:url(#linearGradient2506);fill-opacity:1;fill-rule:evenodd;stroke:none;display:inline" />
  </g>
</svg>

<?xml version="1.0" encoding="UTF-8" standalone="no"?>
<!-- Created with Inkscape (http://www.inkscape.org/) -->
<svg
   xmlns:svg="http://www.w3.org/2000/svg"
   xmlns="http://www.w3.org/2000/svg"
   xmlns:xlink="http://www.w3.org/1999/xlink"
   xmlns:inkscape="http://www.inkscape.org/namespaces/inkscape"
   version="1.0"
   width="32"
   height="32"
   id="svg2424">
  <defs
     id="defs2426">
    <linearGradient
       id="linearGradient5048">
      <stop
         id="stop5050"
         style="stop-color:#000000;stop-opacity:0"
         offset="0" />
      <stop
         id="stop5056"
         style="stop-color:#000000;stop-opacity:1"
         offset="0.5" />
      <stop
         id="stop5052"
         style="stop-color:#000000;stop-opacity:0"
         offset="1" />
    </linearGradient>
    <linearGradient
       id="linearGradient5060">
      <stop
         id="stop5062"
         style="stop-color:#000000;stop-opacity:1"
         offset="0" />
      <stop
         id="stop5064"
         style="stop-color:#000000;stop-opacity:0"
         offset="1" />
    </linearGradient>
    <linearGradient
       id="linearGradient3104">
      <stop
         id="stop3106"
         style="stop-color:#aaaaaa;stop-opacity:1"
         offset="0" />
      <stop
         id="stop3108"
         style="stop-color:#c8c8c8;stop-opacity:1"
         offset="1" />
    </linearGradient>
    <linearGradient
       id="linearGradient3600">
      <stop
         id="stop3602"
         style="stop-color:#f4f4f4;stop-opacity:1"
         offset="0" />
      <stop
         id="stop3604"
         style="stop-color:#dbdbdb;stop-opacity:1"
         offset="1" />
    </linearGradient>
    <radialGradient
       cx="102"
       cy="112.3047"
       r="139.55859"
       id="XMLID_8_"
       gradientUnits="userSpaceOnUse">
      <stop
         id="stop41"
         style="stop-color:#b7b8b9;stop-opacity:1"
         offset="0" />
      <stop
         id="stop47"
         style="stop-color:#ececec;stop-opacity:1"
         offset="0.18851049" />
      <stop
         id="stop49"
         style="stop-color:#fafafa;stop-opacity:0"
         offset="0.25718147" />
      <stop
         id="stop51"
         style="stop-color:#ffffff;stop-opacity:0"
         offset="0.30111277" />
      <stop
         id="stop53"
         style="stop-color:#fafafa;stop-opacity:0"
         offset="0.53130001" />
      <stop
         id="stop55"
         style="stop-color:#ebecec;stop-opacity:0"
         offset="0.84490001" />
      <stop
         id="stop57"
         style="stop-color:#e1e2e3;stop-opacity:0"
         offset="1" />
    </radialGradient>
    <linearGradient
       id="linearGradient3211">
      <stop
         id="stop3213"
         style="stop-color:#ffffff;stop-opacity:1"
         offset="0" />
      <stop
         id="stop3215"
         style="stop-color:#ffffff;stop-opacity:0"
         offset="1" />
    </linearGradient>
    <filter
       height="1.3286875"
       y="-0.16434373"
       width="1.2969251"
       x="-0.14846256"
       id="filter3212">
      <feGaussianBlur
         id="feGaussianBlur3214"
         stdDeviation="0.77391625"
         inkscape:collect="always" />
    </filter>
    <linearGradient
       id="linearGradient8589">
      <stop
         id="stop8591"
         style="stop-color:#fefefe;stop-opacity:1"
         offset="0" />
      <stop
         id="stop8593"
         style="stop-color:#cbcbcb;stop-opacity:1"
         offset="1" />
    </linearGradient>
    <linearGradient
       x1="32.892288"
       y1="8.0590115"
       x2="36.358372"
       y2="5.4565363"
       id="linearGradient2506"
       xlink:href="#linearGradient8589"
       gradientUnits="userSpaceOnUse"
       gradientTransform="matrix(0.6371285,0,0,0.6445638,0.8296804,0.7445175)" />
    <linearGradient
       x1="24"
       y1="1.9999999"
       x2="24"
       y2="46.01725"
       id="linearGradient2510"
       xlink:href="#linearGradient3211"
       gradientUnits="userSpaceOnUse"
       gradientTransform="matrix(0.6363646,0,0,0.6279076,0.7272514,0.9302159)" />
    <radialGradient
       cx="102"
       cy="112.3047"
       r="139.55859"
       id="radialGradient2513"
       xlink:href="#XMLID_8_"
       gradientUnits="userSpaceOnUse"
       gradientTransform="matrix(0.2340426,0,0,-0.2542968,1.0212767,32.288672)" />
    <linearGradient
       x1="25.132275"
       y1="0.98520643"
       x2="25.132275"
       y2="47.013336"
       id="linearGradient2516"
       xlink:href="#linearGradient3600"
       gradientUnits="userSpaceOnUse"
       gradientTransform="matrix(0.6571436,0,0,0.6301241,0.2285531,-8.9647831e-2)" />
    <linearGradient
       x1="-51.786404"
       y1="50.786446"
       x2="-51.786404"
       y2="2.9062471"
       id="linearGradient2518"
       xlink:href="#linearGradient3104"
       gradientUnits="userSpaceOnUse"
       gradientTransform="matrix(0.5306412,0,0,0.5897023,39.269605,-0.7919081)" />
    <radialGradient
       cx="605.71429"
       cy="486.64789"
       r="117.14286"
       fx="605.71429"
       fy="486.64789"
       id="radialGradient2521"
       xlink:href="#linearGradient5060"
       gradientUnits="userSpaceOnUse"
       gradientTransform="matrix(1.566318e-2,0,0,8.2352934e-3,17.610433,26.980566)" />
    <radialGradient
       cx="605.71429"
       cy="486.64789"
       r="117.14286"
       fx="605.71429"
       fy="486.64789"
       id="radialGradient2524"
       xlink:href="#linearGradient5060"
       gradientUnits="userSpaceOnUse"
       gradientTransform="matrix(-1.5663176e-2,0,0,8.2352934e-3,14.389566,26.980566)" />
    <linearGradient
       x1="302.85715"
       y1="366.64789"
       x2="302.85715"
       y2="609.50507"
       id="linearGradient2527"
       xlink:href="#linearGradient5048"
       gradientUnits="userSpaceOnUse"
       gradientTransform="matrix(4.5769278e-2,0,0,8.2352934e-3,-0.5423243,26.980549)" />
  </defs>
  <g
     id="layer1">
    <rect
       width="22.100021"
       height="2"
       x="4.9499893"
       y="30"
       id="rect2879"
       style="opacity:0.15;fill:url(#linearGradient2527);fill-opacity:1;fill-rule:nonzero;stroke:none;stroke-width:1;stroke-linecap:round;stroke-linejoin:miter;marker:none;marker-start:none;marker-mid:none;marker-end:none;stroke-miterlimit:4;stroke-dasharray:none;stroke-dashoffset:0;stroke-opacity:1;visibility:visible;display:inline;overflow:visible" />
    <path
       d="M 4.9499887,30.000087 C 4.9499887,30.000087 4.9499887,31.999977 4.9499887,31.999977 C 4.1433737,32.003743 2.9999867,31.551903 2.9999867,30.999903 C 2.9999867,30.447903 3.9001077,30.000087 4.9499887,30.000087 z"
       id="path2881"
       style="opacity:0.15;fill:url(#radialGradient2524);fill-opacity:1;fill-rule:nonzero;stroke:none;stroke-width:1;stroke-linecap:round;stroke-linejoin:miter;marker:none;marker-start:none;marker-mid:none;marker-end:none;stroke-miterlimit:4;stroke-dasharray:none;stroke-dashoffset:0;stroke-opacity:1;visibility:visible;display:inline;overflow:visible" />
    <path
       d="M 27.050011,30.000087 C 27.050011,30.000087 27.050011,31.999977 27.050011,31.999977 C 27.856625,32.003743 29.000013,31.551903 29.000013,30.999903 C 29.000013,30.447903 28.099891,30.000087 27.050011,30.000087 z"
       id="path2883"
       style="opacity:0.15;fill:url(#radialGradient2521);fill-opacity:1;fill-rule:nonzero;stroke:none;stroke-width:1;stroke-linecap:round;stroke-linejoin:miter;marker:none;marker-start:none;marker-mid:none;marker-end:none;stroke-miterlimit:4;stroke-dasharray:none;stroke-dashoffset:0;stroke-opacity:1;visibility:visible;display:inline;overflow:visible" />
    <path
       d="M 4.499961,1.4999609 C 9.7704453,1.4999609 15.04093,1.4999609 20.311419,1.4999609 C 21.235975,1.8127611 26.20301,5.3763851 27.50004,7.8438467 C 27.50004,15.395911 27.50004,22.947975 27.50004,30.50004 C 19.833346,30.50004 12.166654,30.50004 4.499961,30.50004 C 4.499961,20.833346 4.499961,11.166652 4.499961,1.4999609 z"
       id="path4160"
       style="fill:url(#linearGradient2516);fill-opacity:1;stroke:url(#linearGradient2518);stroke-width:0.99992174;stroke-linecap:butt;stroke-linejoin:round;stroke-miterlimit:4;stroke-dasharray:none;stroke-dashoffset:0;stroke-opacity:1;display:inline" />
    <path
       d="M 5.2340427,30 C 5.1050853,30 5,29.885821 5,29.745703 L 5,2.2816602 C 5,2.141289 5.1050853,2.0273644 5.2340427,2.0273644 C 10.076044,2.0976535 15.441839,1.9222203 20.277954,2.0448649 L 26.931426,7.8143805 L 27,29.745703 C 27,29.885821 26.895148,30 26.765957,30 L 5.2340427,30 z"
       id="path4191"
       style="fill:url(#radialGradient2513);fill-opacity:1" />
    <path
       d="M 26.50004,8.1389757 C 26.50004,15.170208 26.50004,22.468805 26.50004,29.50004 C 19.500015,29.50004 12.499989,29.50004 5.4999611,29.50004 C 5.4999611,20.500011 5.4999611,11.499986 5.4999611,2.4999608 C 10.312145,2.4999608 15.239097,2.4999608 20.051281,2.4999608"
       id="path2435"
       style="opacity:0.6;fill:none;fill-opacity:1;stroke:url(#linearGradient2510);stroke-width:1;stroke-linecap:butt;stroke-linejoin:miter;stroke-miterlimit:4;stroke-dasharray:none;stroke-dashoffset:0;stroke-opacity:1;display:inline" />
    <path
       d="M 28.617256,0.92125832 C 32.899778,0.92125832 30.770506,9.4044296 30.770506,9.4044296 C 30.770506,9.4044296 41.128148,7.6020829 41.128148,12.223174 C 41.128148,9.6134507 29.825844,1.4945784 28.617256,0.92125832 z"
       transform="matrix(0.6385981,0,0,0.6193639,0.7250758,1.4294058)"
       id="path12038"
       style="opacity:0.4;fill:#000000;fill-opacity:1;fill-rule:evenodd;stroke:none;stroke-width:1px;stroke-linecap:butt;stroke-linejoin:miter;stroke-opacity:1;display:inline;filter:url(#filter3212)" />
    <path
       d="M 19.000002,2.0000004 C 21.03489,2.0000004 20.491614,6.7454911 20.491614,6.7454911 C 20.491614,6.7454911 26.989432,6.1378635 26.989432,9 C 26.989432,8.3026345 27.044298,7.803237 26.904003,7.5856242 C 25.896098,6.0222381 21.542643,2.5140243 19.970553,2.0542158 C 19.85291,2.0198078 19.592053,2.0000004 19.000002,2.0000004 z"
       id="path4474"
       style="fill:url(#linearGradient2506);fill-opacity:1;fill-rule:evenodd;stroke:none;stroke-width:1px;stroke-linecap:butt;stroke-linejoin:miter;stroke-opacity:1;display:inline" />
  </g>
</svg>
